X:95
T:Rotta
C:Anonyme (XIIIe siècle)
Z:Transcrit et/ou corrigé par B@D - 2005-04-21
Z:Pour toute observation mailto:-@- M:C| Q:"Allegro" 1/2=92
L:1/8
K:F
V:1
.d.e | f2.e.f d2g2 | .g.f.e.f d2 (dc) |1 (cB).A.B (GA).B.G | A4 !breath!A2 :|2 (cB)(BA) (AG)(G^F) | !breath!G6 |:
de | f2ef d2g2 | gfef d2 (dc) |1 (cB).B.A (AG).^F.G | !breath!A6 :|2 (cB)(BA) (AG)(G^F) | !breath!G6 |:
GA | B2Bc d2de | f2ef d2(dc) |1 (cB)(BA) (AG).G.^F | !breath!A6 :|2 (cB)(BA) (AG)(G^F) | G6 |]
V:2 clef=perc stafflines=1
K:None
z2 | B2z2 B2B2 | B2z2B2B2 | B2z2B2B2 | B2z2B2 | B2z2B2B2 | B2z2B2 | 
z2 | B2z2 B2B2 | B2z2B2B2 | B2z2B2B2 | B2z2B2 | B2z2B2B2 | B2z2B2 | 
z2 | B2z2 B2B2 | B2z2B2B2 | B2z2B2B2 | B2z2B2 | B2z2B2B2 | B2z2B2 | 





